public/images/logo/github.svg

<svg width="16" height="16" viewBox="0 0 16 16" fill="none" xmlns="http://www.w3.org/2000/svg">
<path d="M7.90712 1C9.19059 1 10.3727 1.28909 11.4704 1.8512C12.5682 2.41332 13.4125 3.20027 14.0374 4.17996C14.6791 5.20782 15 6.31599 15 7.53658C15 9.01414 14.5609 10.3472 13.6827 11.5196C12.8046 12.692 11.6731 13.495 10.2545 13.9447C10.1025 13.9768 9.98432 13.9607 9.89988 13.8965C9.81544 13.8323 9.76478 13.7359 9.76478 13.6235V11.375C9.76478 10.7968 9.61279 10.3953 9.29192 10.1384C9.98432 10.0741 10.5078 9.97776 10.8456 9.86534C11.3691 9.68868 11.7744 9.41565 12.0615 9.06232C12.3824 8.59657 12.5344 7.95415 12.5344 7.15113C12.5344 6.81386 12.4668 6.50872 12.3317 6.26781C12.2304 6.09115 12.0615 5.8663 11.7913 5.59327C11.8589 5.41661 11.9095 5.19176 11.9264 4.95086C11.9433 4.54935 11.8758 4.1639 11.7238 3.76239C11.5718 3.73027 11.3016 3.77845 10.9638 3.90693C10.7443 4.00329 10.4741 4.11572 10.1701 4.27632L9.79855 4.51723C9.20748 4.35662 8.61641 4.27632 8.00844 4.27632C7.40048 4.27632 6.80941 4.35662 6.25211 4.51723L5.88058 4.27632C5.5766 4.11572 5.30639 3.98723 5.06996 3.90693C4.73221 3.77845 4.47889 3.74633 4.31001 3.79451C4.14113 4.19602 4.07358 4.58147 4.10736 4.98298C4.10736 5.23994 4.14113 5.43267 4.22557 5.59327C4.00603 5.8663 3.83715 6.10721 3.73583 6.33205C3.6345 6.5569 3.58384 6.82992 3.58384 7.18325C3.58384 7.98627 3.73583 8.61263 4.03981 9.06232C4.31001 9.43171 4.69843 9.7208 5.22195 9.89746C5.55971 10.0099 6.06634 10.0902 6.74186 10.1705C6.50543 10.3793 6.35344 10.6844 6.28589 11.0859C5.96502 11.2305 5.66104 11.2787 5.35706 11.2465C4.86731 11.2144 4.49578 10.9735 4.22557 10.5238C4.10736 10.3311 3.95537 10.1705 3.7696 10.042C3.6345 9.97776 3.4994 9.91352 3.34741 9.84928L3.14475 9.81716C2.9421 9.81716 2.82388 9.84928 2.82388 9.91352C2.807 9.97776 2.85766 10.042 2.95899 10.1223L3.09409 10.2347C3.22919 10.299 3.36429 10.4275 3.48251 10.5881C3.60072 10.7165 3.68516 10.8611 3.7696 11.0217L3.88782 11.2305C3.98914 11.5035 4.15802 11.7123 4.42823 11.8408C4.64777 11.9693 4.93486 12.0496 5.23884 12.0817C5.45838 12.0977 5.69481 12.0977 5.94813 12.0496L6.25211 12.0174L6.28589 13.6556C6.28589 13.768 6.23522 13.8483 6.15078 13.9286C6.06634 13.9929 5.94813 14.025 5.79614 13.9768C4.36068 13.5271 3.2123 12.7241 2.31725 11.5517C1.43908 10.3632 1 9.0302 1 7.55264C1 6.33205 1.30398 5.22388 1.89505 4.22814C2.50302 3.2324 3.33052 2.44544 4.37756 1.86726C5.4415 1.28909 6.62364 1 7.90712 1ZM3.43185 10.042C3.46562 10.0099 3.51628 9.99382 3.56695 10.0259C3.61761 10.0581 3.6345 10.0902 3.61761 10.1384C3.60072 10.1865 3.55006 10.1865 3.48251 10.1544C3.41496 10.1223 3.41496 10.0741 3.43185 10.042ZM3.73583 10.2668C3.7696 10.2347 3.82027 10.2347 3.87093 10.299C3.92159 10.3472 3.93848 10.3953 3.9047 10.4275C3.87093 10.4596 3.82027 10.4596 3.7696 10.3953C3.70205 10.3472 3.70205 10.299 3.73583 10.2668ZM4.02292 10.6041C4.05669 10.5881 4.09047 10.5881 4.12425 10.5881C4.15802 10.6041 4.17491 10.6202 4.1918 10.6523C4.24246 10.7165 4.24246 10.7808 4.1918 10.8129C4.17491 10.829 4.14113 10.829 4.12425 10.8129C4.10736 10.7968 4.05669 10.7808 4.02292 10.7647C3.98914 10.6844 3.98914 10.6202 4.02292 10.6041ZM4.36068 10.9896C4.37756 10.9735 4.41134 10.9735 4.44511 10.9735C4.47889 10.9896 4.51267 11.0056 4.54644 11.0217C4.58022 11.0538 4.5971 11.0859 4.5971 11.1181C4.61399 11.1502 4.59711 11.1823 4.58022 11.1984C4.52955 11.2465 4.462 11.2465 4.37756 11.1662C4.34379 11.1341 4.3269 11.102 4.3269 11.0538C4.3269 11.0056 4.34379 11.0056 4.36068 10.9896ZM4.81665 11.3268C4.83353 11.2626 4.8842 11.2305 4.98552 11.2626C5.08685 11.2947 5.12063 11.3268 5.12063 11.375C5.10374 11.4232 5.08685 11.4553 5.05308 11.4714C5.0193 11.4874 4.98552 11.4874 4.93486 11.4714C4.8842 11.4553 4.86731 11.4232 4.83353 11.4071C4.79976 11.375 4.79976 11.359 4.81665 11.3268ZM5.67793 11.4393C5.67793 11.4232 5.66104 11.4071 5.62726 11.3911C5.59349 11.375 5.55971 11.359 5.49216 11.359C5.39083 11.359 5.35706 11.3911 5.35706 11.4714C5.35706 11.5356 5.40772 11.5677 5.50905 11.5677C5.62726 11.5517 5.67793 11.5196 5.67793 11.4393ZM6.04946 11.2787C6.15078 11.2787 6.20145 11.3108 6.20145 11.359C6.21833 11.4071 6.16767 11.4553 6.06634 11.4874C6.03257 11.4874 5.99879 11.4874 5.96502 11.4714C5.93124 11.4553 5.91435 11.4232 5.91435 11.375C5.91435 11.3268 5.96502 11.2947 6.04946 11.2787Z" fill="#43436B"/>
</svg>

<svg width="16" height="16" fill="none" xmlns="http://www.w3.org/2000/svg"><path d="M7.907 1c1.284 0 2.466.29 3.563.851a6.502 6.502 0 012.567 2.329A6.192 6.192 0 0115 7.537c0 1.477-.44 2.81-1.317 3.983-.878 1.172-2.01 1.975-3.428 2.425-.153.032-.27.016-.355-.049a.337.337 0 01-.135-.273v-2.248c0-.578-.152-.98-.473-1.237.692-.064 1.216-.16 1.554-.273.523-.176.928-.45 1.216-.803.32-.465.472-1.108.472-1.91 0-.338-.067-.643-.202-.884a3.408 3.408 0 00-.54-.675 2.29 2.29 0 00.134-.642 2.94 2.94 0 00-.202-1.189c-.152-.032-.422.016-.76.145-.22.096-.49.209-.794.37l-.371.24a6.767 6.767 0 00-1.79-.24 6.34 6.34 0 00-1.757.24l-.371-.24a5.841 5.841 0 00-.811-.37c-.338-.129-.591-.16-.76-.112a2.462 2.462 0 00-.203 1.188c0 .257.034.45.119.61-.22.273-.389.514-.49.739-.102.225-.152.498-.152.851 0 .803.152 1.43.456 1.88.27.369.658.658 1.182.834.338.113.844.193 1.52.274-.237.208-.389.513-.456.915-.321.144-.625.193-.929.16-.49-.032-.861-.273-1.131-.722a1.591 1.591 0 00-.456-.482c-.135-.064-.27-.128-.423-.193l-.202-.032c-.203 0-.321.032-.321.097-.017.064.034.128.135.208l.135.113c.135.064.27.193.389.353.118.129.202.273.287.434l.118.208c.101.274.27.482.54.61.22.13.507.21.81.242.22.016.457.016.71-.032l.304-.033.034 1.639c0 .112-.05.192-.135.273-.085.064-.203.096-.355.048-1.435-.45-2.584-1.253-3.479-2.425a6.565 6.565 0 01-1.317-4c0-1.22.304-2.328.895-3.324a6.578 6.578 0 012.483-2.36C5.44 1.288 6.624 1 7.908 1zm-4.475 9.042c.034-.032.084-.048.135-.016.05.032.067.064.05.112-.016.049-.067.049-.134.016-.068-.032-.068-.08-.051-.112zm.304.225c.034-.032.084-.032.135.032.05.048.067.096.034.129-.034.032-.085.032-.135-.033-.068-.048-.068-.096-.034-.128zm.287.337c.034-.016.067-.016.101-.016.034.016.05.032.068.064.05.065.05.129 0 .16-.017.017-.05.017-.068 0-.017-.015-.067-.031-.101-.047-.034-.08-.034-.145 0-.16zm.338.386c.017-.017.05-.017.084-.017l.101.049c.034.032.051.064.051.096.017.032 0 .064-.017.08-.05.048-.118.048-.202-.032a.142.142 0 01-.051-.112c0-.048.017-.048.034-.064zm.456.337c.017-.064.067-.097.169-.064.1.032.135.064.135.112-.017.048-.034.08-.068.096s-.067.016-.118 0c-.05-.016-.068-.048-.101-.064-.034-.032-.034-.048-.017-.08zm.86.112c0-.016-.016-.032-.05-.048a.272.272 0 00-.135-.032c-.101 0-.135.032-.135.112 0 .065.05.097.152.097.118-.016.169-.048.169-.129zm.372-.16c.102 0 .152.032.152.08.017.048-.033.096-.135.128-.033 0-.067 0-.101-.016s-.05-.048-.05-.096.05-.08.134-.096z" fill="#43436B"/></svg>
